X:27
T:Mail Coach. THO5.027, The
M:2/4
L:1/8
B:Thompson's Complete Collection of 200 Favourite Dances Vol.5
F:https://www.libraryofdance.org/manuals/1780c-Thompson-Compleat-5.pdf
Z:vmp. Peter Dunk 2024
Q:1/4=100
K:D
d>e f/e/f/g/|ab e2|gfed|c/d/e/c/ AB/c/|
d>e f/e/f/g/|ab e2|gfed|{f/}(ed/c/) d2:|
|:e>dcd|ef g2|g/a/g/f/ e/f/e/d/|c/d/c/B/ A/B/c/d/|
e>dcd|ef g/a/g/f/|ed {f/}(ed/c/)|d2-d2:|
W:
W:The 1st Couple: turn right hands half round,
W:left hands back again ./. the 2nd Couple: do the same ./:
W:1st and 2nd Couple: Promenade round :/.
W:1st Couple: lead down the middle, up again and cast off :/:

